!!!COM: Palestrina, Giovanni Perluigi da
!!!OPR: Virtute magna
!!!OTL: Agnus II
**kern	**kern	**kern	**kern	**kern
*Ibass	*Itenor	*Itenor	*Icalto	*Icant
!Bassus	!Tenor 2	!Tenor 1	!Altus	!Cantus
*clefF4	*clefGv2	*clefGv2	*clefG2	*clefG2
*k[]	*k[]	*k[]	*k[]	*k[]
*G:mix	*G:mix	*G:mix	*G:mix	*G:mix
*M4/2	*M4/2	*M4/2	*M4/2	*M4/2
=1	=1	=1	=1	=1
0r	0r	1r	0r	0g
.	.	[1g	.	.
=2	=2	=2	=2	=2
0r	0r	2g]	0r	0dd
.	.	4f	.	.
.	.	4e	.	.
.	.	1f	.	.
=3	=3	=3	=3	=3
0r	0r	2e	0c	0ee
.	.	4g	.	.
.	.	4f	.	.
.	.	4e	.	.
.	.	4d	.	.
.	.	[2c	.	.
=4	=4	=4	=4	=4
1r	0G	2c]	0g	0dd
.	.	4B	.	.
.	.	4A	.	.
[1G	.	1B	.	.
=5	=5	=5	=5	=5
2G]	0d	1A	0a	0r
4F	.	.	.	.
4E	.	.	.	.
1F	.	2r	.	.
.	.	2A	.	.
=6	=6	=6	=6	=6
2.E	0e	1B	0g	1r
4D	.	.	.	.
2C	.	1c	.	1g
[2c	.	.	.	.
=7	=7	=7	=7	=7
2c]	0d	0G	2r	0dd
4B	.	.	1g	.
4A	.	.	.	.
1B	.	.	.	.
.	.	.	2g	.
=8	=8	=8	=8	=8
0c	0r	2.g	2.e	0ee
.	.	4f	4f	.
.	.	2e	1g	.
.	.	4d	.	.
.	.	4c	.	.
=9	=9	=9	=9	=9
0G	1r	2.B	0g	2.dd
.	.	4c	.	4cc
.	1G	1d	.	4b
.	.	.	.	4a
.	.	.	.	[2b
=10	=10	=10	=10	=10
0r	0d	1G	2r	2b]
.	.	.	1g	4a
.	.	.	.	4g
.	.	1r	.	1a
.	.	.	2f#	.
=11	=11	=11	=11	=11
0C	0e	2r	1g	0g
.	.	1c	.	.
.	.	.	2c	.
.	.	2c	[2g	.
=12	=12	=12	=12	=12
0G	2.d	2.B	2g]	0r
.	.	.	4f	.
.	4c	4c	4e	.
.	4B	4d	4d	.
.	4A	4e	4c	.
.	[2B	[2d	4B	.
.	.	.	4A	.
=13	=13	=13	=13	=13
1E	2B]	2d]	2G	0r
.	4A	2c#	1g	.
.	4G	.	.	.
1D	1A	2d	.	.
.	.	2d	2f#	.
=14	=14	=14	=14	=14
1G	0G	1d	1g	2r
.	.	.	.	2dd
1r	.	1B	2r	1dd
.	.	.	2g	.
=15	=15	=15	=15	=15
0r	0r	1G	1g	1b
.	.	[1c	[1e	1g
=16	=16	=16	=16	=16
0r	0r	2c]	2e]	2a
.	.	2B	2d	2b
.	.	1A	2e	[1cc
.	.	.	2f#	.
=17	=17	=17	=17	=17
1r	2r	0G	0g	2cc]
.	2d	.	.	4b
.	.	.	.	4a
2r	1d	.	.	2.b
2G	.	.	.	.
.	.	.	.	4cc
=18	=18	=18	=18	=18
1G	1B	1G	1g	1dd
2E	1G	1r	1r	1ee
2C	.	.	.	.
=19	=19	=19	=19	=19
2c	2A	0r	0r	0r
2B	2B	.	.	.
1A	[1c	.	.	.
=20	=20	=20	=20	=20
[0G	2c]	1g	2r	1r
.	4B	.	2d	.
.	4A	.	.	.
.	2.B	1g	1d	2r
.	.	.	.	2dd
.	4c	.	.	.
=21	=21	=21	=21	=21
1G]	1d	1r	2B	1dd
.	.	.	2G	.
1r	1e	2r	1g	2b
.	.	2c	.	[2g
=22	=22	=22	=22	=22
0r	0r	1c	2e	2g]
.	.	.	4c	1cc
.	.	.	4d	.
.	.	2A	4e	.
.	.	.	4c	.
.	.	2F	2f	2a
=23	=23	=23	=23	=23
0r	1r	2G	2d	2.b
.	.	2G	1g	.
.	.	.	.	8a
.	.	.	.	8g
.	2r	1d	.	1a
.	2d	.	2f#	.
=24	=24	=24	=24	=24
2r	1d	1G	1g	1g
2G	.	.	.	.
1G	2B	2r	1d	1r
.	[2G	2g	.	.
=25	=25	=25	=25	=25
2E	2G]	1g	2.e	0r
2C	1c	.	.	.
.	.	.	4f	.
2E	.	2e	2g	.
2F	2A	2c	[2a	.
=26	=26	=26	=26	=26
1G	2.B	2e	2a]	1r
.	.	2d	1g	.
.	8A	.	.	.
.	8G	.	.	.
1D	1A	2.d	.	1a
.	.	.	2f#	.
.	.	4c	.	.
=27	=27	=27	=27	=27
2.G	1G	4B	[0g	2.b
.	.	4G	.	.
.	.	2.g	.	.
4A	.	.	.	4cc
2B	1r	.	.	2dd
.	.	4f	.	.
[2c	.	4e	.	[2ee
.	.	4d	.	.
=28	=28	=28	=28	=28
2c]	0r	2c	1g]	4ee]
.	.	.	.	4dd
2B	.	2d	.	1dd
2.A	.	1e	1a	.
.	.	.	.	2cc#
4G	.	.	.	.
=29	=29	=29	=29	=29
2F#	1r	0d	2r	0dd
2G	.	.	1g	.
1D	1A	.	.	.
.	.	.	2f#	.
=30	=30	=30	=30	=30
1G	2.B	2r	0g	2r
.	.	2G	.	1dd
.	4c	.	.	.
1r	2d	2B	.	.
.	[2e	2c	.	2cc
=31	=31	=31	=31	=31
0r	4e]	1G	1g	1b
.	4d	.	.	.
.	1d	.	.	.
.	.	1A	1e	1a
.	2c#	.	.	.
=32	=32	=32	=32	=32
2r	0d	1B	1d	0r
1G	.	.	.	.
.	.	1A	2r	.
2F	.	.	2a	.
=33	=33	=33	=33	=33
2G	2r	1r	2g	0r
2D	1d	.	1f	.
1A	.	2r	.	.
.	2c	[2a	2e	.
=34	=34	=34	=34	=34
2r	1B	2a]	2.d	0r
1d	.	2g	.	.
.	.	.	4e	.
.	1A	2f	4f	.
.	.	.	4g	.
2c	.	2e	[2a	.
=35	=35	=35	=35	=35
1B	0r	1d	2a]	2r
.	.	.	2g#	1dd
1A	.	1e	1a	.
.	.	.	.	2cc
=36	=36	=36	=36	=36
4G	0r	2r	1d	1b
4A	.	.	.	.
4B	.	1g	.	.
4c	.	.	.	.
1d	.	.	1r	1a
.	.	2f	.	.
=37	=37	=37	=37	=37
1G	0r	2e	2r	1b
.	.	2d	1g	.
1r	.	2c	.	1a
.	.	2d	2f	.
=38	=38	=38	=38	=38
0r	2r	1G	1b-	2.dd
.	1d	.	.	.
.	.	.	.	4ee
.	.	1A	1a	2ff
.	2c	.	.	[2ee
=39	=39	=39	=39	=39
0r	1B	1r	4g	4ee]
.	.	.	4f	4dd
.	.	.	4e	1dd
.	.	.	4d	.
.	1A	2r	1e	.
.	.	[2a	.	2cc#
=40	=40	=40	=40	=40
2r	1B	2a]	1d	1dd
1d	.	2g	.	.
.	1A	2f	2r	1r
2c	.	[2e	[2a	.
=41	=41	=41	=41	=41
1B	2.d	4e]	2a]	0r
.	.	4d	.	.
.	.	1d	2g#	.
.	4e	.	.	.
2.A	2f	.	1a	.
.	[2e	2c	.	.
4G	.	.	.	.
=42	=42	=42	=42	=42
2F#	4e]	2A	1d	1r
.	4d	.	.	.
2G	1d	2B	.	.
1E	.	1G	1r	2r
.	2c#	.	.	[2gg
=43	=43	=43	=43	=43
1D	1d	2.A	2r	2gg]
.	.	.	2d	2ff
.	.	4B	.	.
1C	1r	1c	2e	1ee
.	.	.	[2g	.
=44	=44	=44	=44	=44
1D	0r	2A	2g]	2.dd
.	.	2d	2f#	.
.	.	.	.	4cc
1r	.	2e	2g	2b
.	.	[2g	2c	2cc
=45	=45	=45	=45	=45
0r	1r	2g]	2.d	1a
.	.	2f#	.	.
.	.	.	4c	.
.	2r	2g	2B	1g
.	[2g	2e	2c	.
=46	=46	=46	=46	=46
1D	2g]	1d	1A	1dd
.	2f	.	.	.
2E	1e	1r	1G	2cc
[2G	.	.	.	[2b
=47	=47	=47	=47	=47
2G]	2.d	2r	0r	2b]
2F#	.	1d	.	2.a
.	4c	.	.	.
2G	2B	.	.	.
.	.	.	.	4g
2C	2c	2e	.	[2g
=48	=48	=48	=48	=48
1D	1A	1d	2r	2g]
.	.	.	2.d	2f#
2r	1G	2B	.	1g
.	.	.	4c	.
[2G	.	4G	[2B	.
.	.	4A	.	.
=49	=49	=49	=49	=49
2G]	1d	4B	2B]	0r
.	.	4c	.	.
2F	.	4d	2A	.
.	.	8c	.	.
.	.	8d	.	.
2.E	2c	1e	2G	.
.	[2B	.	[2g	.
4F#	.	.	.	.
=50	=50	=50	=50	=50
2G	2B]	2.d	2g]	0r
2D	2.A	.	2f	.
.	.	4c	.	.
2E	.	2B	1e	.
.	4G	.	.	.
2C	[2G	2c	.	.
=51	=51	=51	=51	=51
1D	2G]	2A	2.d	0r
.	2F#	1d	.	.
.	.	.	4c	.
2.E	1G	.	2B	.
.	.	2c	2e	.
4F#	.	.	.	.
=52	=52	=52	=52	=52
2.G	0r	2B	1d	2r
.	.	2G	.	1gg
8F	.	.	.	.
8E	.	.	.	.
1D	.	2A	2r	.
.	.	2B	2d	2ff
=53	=53	=53	=53	=53
1C	0r	2.c	2e	1ee
.	.	.	1g	.
.	.	4B	.	.
1D	.	2A	.	2.dd
.	.	2d	2f#	.
.	.	.	.	4cc
=54	=54	=54	=54	=54
0r	0r	2e	2g	2b
.	.	1g	2c	2cc
.	.	.	2.d	1a
.	.	2f#	.	.
.	.	.	4c	.
=55	=55	=55	=55	=55
1r	2r	2g	2B	1g
.	1g	2e	2c	.
1D	.	1d	1A	1dd
.	2f	.	.	.
=56	=56	=56	=56	=56
2E	1e	1r	1G	2cc
1G	.	.	.	1b
.	2.d	2r	1r	.
2F#	.	[2d	.	[2a
.	4c	.	.	.
=57	=57	=57	=57	=57
2G	2B	2d]	1r	4a]
.	.	.	.	4g
2C	2c	2e	.	1g
1D	1A	1d	2r	.
.	.	.	[2d	2f#
=58	=58	=58	=58	=58
1.G	[0G	2B	2d]	[0g
.	.	4G	2e	.
.	.	4A	.	.
.	.	4B	2d	.
.	.	4c	.	.
2G	.	[2d	2B	.
=59	=59	=59	=59	=59
1C	1G_	4d]	1c	1g_
.	.	4c	.	.
.	.	1c	.	.
1G	1G_	.	1d	1g_
.	.	2B	.	.
=60	=60	=60	=60	=60
0C	0G]	0c	0e	0g]
=61	=61	=61	=61	=61
[0G	[0G	[0B	[0d	[0g
=62	=62	=62	=62	=62
0G]	0G]	0B]	0d]	0g]
==	==	==	==	==
*-	*-	*-	*-	*-
!!!CDT: 1525/^1526/-1594/2/2
!!!OCY: Italia
!!!AGN: Mass (Parody)
!!!AST: renaissance, vocal
!!!ASW: Motet 1532 (Lasson)
!!!PWK: Masses, Book I
!!!RNB: Cadence finals: D
!!!YOR: Le Opere Complete, v. 1, p. 62
!!!YOO: Rome, Italy: Fratelli Scalera
!!!END: 1992//
!!!EED: John Miller
!!!YEC: Copyright 2000, John Miller
!!!YEN: United States of America
!!!YEM: Rights to all derivative electronic formats reserved.
!!!YEM: Refer to licensing agreement for further details.
!!!YEM: This file must be accompanied by the licensing agreement.
!!!YEM: A copy of the licensing agreement may be found at http://www.music-cog.ohio-state.edu/HumdrumDatabases/Palestrina/license.txt
!!!EMD: converted to Humdrum by Bret Aarden
